X:891
M:C
L:1/8
K:C
|:B>Gd>G c>Fc>A|B>Gd>G e>Gd>(g|g)>Gd>G c>Fc>A|B>Gd>G B2 AG:|
|:G>g a/g/f/e/ f>c d/c/B/A/|G>gd>g B>gd>g|G>g a/g/f/e/ f>c d/c/B/A/|
g>dg>b g2 de:|
|:BG B/c/d/B/ cF A/B/c/A/|BGGA B/A/B/c/ dg|BG B/c/d/B/ cF A/B/c/A/|1
|:B,>GD>G, C>B,A,>C|B,>GD>G, E>G,D>G|G>G,D>G, C>B,A,>C|

